X: 1
T:Simple Gifts
M:C
L:1/8
Q:80
C:Trad.
S:Hymn
K:HP
A2|
{Gdc}d2{G}d{g}e{g}fd{g}fg|
{ag}a2{g}ag{a}f2{g}ed|
{g}e2A2{gef}e3d|  !
{g}ef{g}ec{g}A2{g}A{d}A| |
{Gdc}d2{G}d{g}e{g}f2{g}fg|
{ag}a2{g}ag{a}f2{g}ed|  !
{gef}e2{A}e2{g}egfe|
{Gdc}d2{G}d2{gdG}d2{g}A2| |
{ag}a4f3e|  !
{g}fgfe{Gdc}d3e|
{g}f2{A}fg{ag}a2gf|
{g}e2{A}ef{gef}e3A| |  !
{Gdc}d4{G}d3e|
{g}fe{g}fga2gf|
{gef}e2{A}e2{g}egfe|  !
{Gdc}d2{G}d2{gdG}d2{g}A2|] |
{Gdc}d4{G}d2e2|
{g}f2d2{g}f2g2|  !
{ag}a4{g}a2g2|
{a}f4{g}e2d2|
{g}e4{g}A4|  !
{gef}e6d2|
{g}e2f2{g}e2c2|
{g}A4{g}A2{d}A2| |  !
{Gdc}d4{g}d2e2|
{g}f4{g}f2g2|
{ag}a4{g}a2g2|  !
{a}f4{g}e2d2|
{gef}e4{A}e4|
{g}e2g2f2e2|  !
{Gdc}d4{G}d4|
{gdG}d6|
